svg/fluentui-system-icons/ic_fluent_data_bar_vertical_star_16_filled.svg

<svg width="16" height="16" viewBox="0 0 16 16" fill="none" xmlns="http://www.w3.org/2000/svg">
<path d="M12 2.5C12 1.67157 11.3284 1 10.5 1C9.67157 1 9 1.67157 9 2.5V6.59971C9.75007 6.21628 10.5998 6 11.5 6C11.6685 6 11.8353 6.00758 12 6.02242V2.5ZM8 5.5V7.25716C6.7785 8.26595 6 9.79206 6 11.5C6 12.009 6.06915 12.5019 6.19856 12.9697C5.5146 12.8302 5 12.2252 5 11.5V5.5C5 4.67157 5.67157 4 6.5 4C7.32843 4 8 4.67157 8 5.5ZM2.5 7C3.32843 7 4 7.67157 4 8.5V11.5C4 12.3284 3.32843 13 2.5 13C1.67157 13 1 12.3284 1 11.5V8.5C1 7.67157 1.67157 7 2.5 7ZM16 11.5C16 13.9853 13.9853 16 11.5 16C9.01472 16 7 13.9853 7 11.5C7 9.01472 9.01472 7 11.5 7C13.9853 7 16 9.01472 16 11.5ZM11.976 8.86053C11.8262 8.37982 11.1738 8.37982 11.024 8.86053L10.5465 10.3923H9.00149C8.51662 10.3923 8.31501 11.0391 8.70728 11.3362L9.95725 12.2829L9.4798 13.8146C9.32997 14.2953 9.85775 14.6951 10.25 14.398L11.5 13.4513L12.75 14.398C13.1422 14.6951 13.67 14.2953 13.5202 13.8146L13.0428 12.2829L14.2927 11.3362C14.685 11.0391 14.4834 10.3923 13.9985 10.3923H12.4535L11.976 8.86053Z" fill="#212121"/>
</svg>

<svg xmlns="http://www.w3.org/2000/svg" width="16" height="16"><path d="M12 2.5a1.5 1.5 0 0 0-3 0v4.1a5.477 5.477 0 0 1 3-.578V2.5Zm-4 3v1.757A5.489 5.489 0 0 0 6 11.5c0 .509.07 1.002.199 1.47A1.5 1.5 0 0 1 5 11.5v-6a1.5 1.5 0 1 1 3 0ZM2.5 7A1.5 1.5 0 0 1 4 8.5v3a1.5 1.5 0 0 1-3 0v-3A1.5 1.5 0 0 1 2.5 7ZM16 11.5a4.5 4.5 0 1 1-9 0 4.5 4.5 0 0 1 9 0Zm-4.024-2.64a.494.494 0 0 0-.952 0l-.477 1.532H9c-.484 0-.686.647-.294.944l1.25.947-.477 1.532c-.15.48.378.88.77.583l1.25-.947 1.25.947c.392.297.92-.103.77-.583l-.477-1.532 1.25-.947c.392-.297.19-.944-.294-.944h-1.546l-.477-1.531Z"/></svg>
